X:1
T:Mountain Belle
N:from the box playing of Sally Sloane
Z:Ian Hayden 2017
M:4/4
L:1/8
K:Dmaj
(3ABc|:d2F2 A2B>A|G2C2E2g>a|g>f e>d c>B A>G|F>G A>B A2(3ABc|
|d2F2 A2B>A|G2C2E2e>f|g>f e>d cA- (3ABc| d2d2d2 A>G|]
[|F2A2d2e>d|c2 B2 E4|c>B E2 c>BE2|A2 B>A F2 A>G|
|F2A2d2e>d|c2 B2 E4|c>B E2 c>BE2|D2-D2-D2 (3ABc:|
